icons/electric-vehicle-17.svg

<?xml version="1.0" encoding="UTF-8"?><svg id="point_symbols" xmlns="http://www.w3.org/2000/svg" viewBox="0 0 17 17"><path d="M14.56317,7h-1.44684l-1.09143-2.21063-.68786.78635.71615,1.42428h-1.97104l-.08069.0918c-.22803.25928-.55664.4082-.90186.4082-.17236,0-.33936-.03613-.49561-.10742-.19434-.08807-.34399-.22998-.46295-.39258h-3.19043l.90942-1.80695c.15431-.32082.19856-.35974.55664-.35974h.73035c-.04559-.04657-.0929-.09155-.13092-.14581-.14233-.20435-.20728-.44507-.20752-.6875h-.39722c-.89398,0-1.36841.49884-1.58978,1.07257l-.9469,1.92743h-1.43787c-.24023,0-.43683.19653-.43683.43677v.72986c0,.46021.53973.83337,1,.83337v4.16663c0,.46021.37305.83337.83331.83337h.33337c.46027,0,.83331-.37317.83331-.83337v-1.16663h7v1.16663c0,.46021.37305.83337.83331.83337h.33337c.46027,0,.83331-.37317.83331-.83337v-4.16663c.46027,0,1-.37317,1-.83337v-.72986c0-.24023-.19659-.43677-.43683-.43677ZM5.16669,10.5c-.6925.00201-1.25323-.55865-1.25-1.24957-.00323-.69458.5575-1.25653,1.25-1.25043.69012-.0061,1.25085.55585,1.24963,1.25043.00122.69092-.55951,1.25159-1.24963,1.24957ZM11.83905,10.5c-.69373.00201-1.25159-.55865-1.25568-1.24957.00409-.69458.56195-1.25653,1.25568-1.25043.68237-.0061,1.24023.55585,1.24432,1.25043-.00409.69092-.56195,1.25159-1.24432,1.24957ZM9.1,6.3l.30161-2.3h-1.40161l1.09998-3h2.10004l-1.79999,2h2.59998l-2.9,3.3Z"/></svg>

<svg xmlns="http://www.w3.org/2000/svg" viewBox="0 0 17 17"><path d="M14.563 7h-1.447l-1.091-2.21-.688.786L12.053 7h-1.97L10 7.092a1.201 1.201 0 0 1-1.397.3A1.183 1.183 0 0 1 8.141 7h-3.19l.909-1.807c.154-.32.199-.36.557-.36h.73c-.046-.046-.093-.091-.13-.146A1.197 1.197 0 0 1 6.808 4H6.41c-.894 0-1.368.499-1.59 1.073L3.876 7H2.437A.438.438 0 0 0 2 7.437v.73C2 8.627 2.54 9 3 9v4.167c0 .46.373.833.833.833h.334c.46 0 .833-.373.833-.833V12h7v1.167c0 .46.373.833.833.833h.334c.46 0 .833-.373.833-.833V9c.46 0 1-.373 1-.833v-.73A.438.438 0 0 0 14.563 7zm-9.396 3.5a1.245 1.245 0 0 1-1.25-1.25A1.24 1.24 0 0 1 5.167 8c.69-.006 1.25.556 1.25 1.25 0 .691-.56 1.252-1.25 1.25zm6.672 0a1.25 1.25 0 1 1 0-2.5 1.25 1.25 0 0 1 0 2.5zM9.1 6.3L9.402 4H8l1.1-3h2.1L9.4 3H12L9.1 6.3z"/></svg>
